assets/img/delivery-svg.svg

<?xml version="1.0"?>
<svg
viewBox="0 0 42 38"
fill="none"
xmlns="http://www.w3.org/2000/svg"
>
<path
    d="M39.771 10.7246H32.6486C31.4195 10.7246 30.4196 11.6298 30.4196 12.7425V20.1595H27.7555C27.9036 19.6725 27.9585 19.0981 27.9225 18.4297V18.4297C27.8646 15.605 27.2981 13.2243 26.2385 11.3539C25.4157 9.90162 24.4556 9.03096 23.6316 8.51047C24.5987 7.61086 25.1578 6.33111 25.1578 4.85512C25.1578 2.1995 22.8164 0.0390625 19.9385 0.0390625C17.0606 0.0390625 14.7192 2.1995 14.7192 4.85512C14.7192 5.16261 14.9947 5.41176 15.3344 5.41176H15.7525C15.714 5.6218 15.6935 5.83584 15.6935 6.05323C15.6935 7.92473 17.1715 9.48889 19.1257 9.83943C18.9208 10.5276 18.819 11.339 18.8194 12.2608L17.285 13.4549L13.5513 13.7281L9.24443 12.44C8.8497 12.3212 8.4023 12.187 8.01413 12.4403C7.63161 12.69 7.63161 13.1272 7.63161 13.2709V16.168C7.63161 16.4755 7.90707 16.7246 8.24685 16.7246H8.97931L7.85589 20.237C7.76147 20.5322 7.94949 20.8409 8.27589 20.9264C8.60245 21.0122 8.94346 20.8417 9.03796 20.5464L10.2604 16.7246H12.0095C9.83399 22.7268 11.0753 26.7333 12.9833 30.788H11.8773L7.271 26.1281L8.24504 23.0836C8.33954 22.7883 8.15153 22.4796 7.82513 22.3942C7.49872 22.3088 7.15756 22.4789 7.06306 22.7741L6.13143 25.6862C3.25 25.6428 0.672575 27.4402 0.0157509 30.0262C-0.0602921 30.3257 0.146345 30.6244 0.477341 30.6933L1.35073 30.8751C1.1276 32.9719 2.65379 34.9502 4.98135 35.4349C5.33482 35.5086 5.69133 35.545 6.04538 35.545C6.91852 35.545 7.77632 35.3235 8.53502 34.8933C9.42547 34.3885 10.0889 33.6463 10.448 32.7692L11.1371 32.9126C11.3425 32.9556 11.5372 32.9773 11.7318 32.8826C11.9128 32.7944 12.0332 32.6352 12.0783 32.4555C12.1216 32.2733 12.1546 32.0881 12.1775 31.9012H25.0447C25.4562 34.2159 27.6329 35.9607 30.2325 35.9607C32.8322 35.9607 35.009 34.2159 35.4204 31.9012H35.89C35.89 31.9012 35.9832 31.9022 36.0044 31.9022C36.1804 31.9022 36.4345 31.8845 36.6432 31.6925C36.7476 31.5964 36.8702 31.4244 36.8607 31.1512C36.8434 30.6285 36.7567 30.1234 36.6087 29.6434C37.0988 26.9516 36.6273 25.3122 35.9283 24.0292C36.3702 23.7671 36.6632 23.3155 36.6632 22.8025V21.2727H39.7708C40.9999 21.2727 41.9998 20.3675 41.9998 19.2548V12.7424C42 11.6298 41.0001 10.7246 39.771 10.7246V10.7246ZM7.88165 33.9501C7.09406 34.3967 6.16219 34.5387 5.25755 34.3502H5.25747C3.5924 34.0035 2.48153 32.6221 2.56249 31.1283L9.23598 32.518C8.95986 33.1062 8.4927 33.6037 7.88165 33.9501V33.9501ZM10.9601 31.7335L1.38994 29.741C2.12847 27.9112 4.11592 26.7 6.28835 26.8042L10.9765 31.5469C10.9724 31.6094 10.967 31.6716 10.9601 31.7335ZM20.253 22.0335C20.0744 22.4597 20.0744 22.9851 20.0744 23.7123V25.8129H17.8216V22.9311C17.8216 19.673 19.7869 19.0924 20.6689 18.9966H26.7006C26.6763 19.7361 26.4919 20.2617 26.1418 20.5953C25.7338 20.984 25.0356 21.1734 24.0073 21.1743L21.7989 21.1764C21.0114 21.1765 20.4913 21.4648 20.253 22.0335V22.0335ZM20.0744 26.9261V28.2552C20.0689 28.2552 20.0631 28.2552 20.0572 28.2552H15.6872C15.7363 27.843 15.8782 27.524 16.1113 27.3032C16.4579 26.9751 16.9462 26.9261 17.2064 26.9261H20.0744ZM26.6734 17.8834H21.0783C20.8537 17.2437 20.6533 16.5432 20.4886 15.8233L22.1897 14.8243C23.1183 14.2787 23.6014 13.5078 23.5151 12.7092C23.4386 12.0012 22.9067 11.3688 22.1598 11.0981C21.4778 10.851 20.7437 10.9286 20.095 11.3039C20.1484 10.7715 20.248 10.2962 20.3921 9.89271C20.6543 9.86822 20.9148 9.82184 21.1705 9.75378C21.6912 9.64438 22.1723 9.47004 22.6067 9.23885C23.7916 9.87936 26.3977 11.9569 26.6734 17.8834V17.8834ZM15.9947 4.29855C16.2848 2.51997 17.9429 1.15242 19.9385 1.15242C22.1379 1.15242 23.9274 2.81351 23.9274 4.85519C23.9274 6.51576 23.0473 7.85415 21.6281 8.44315V5.51425C21.6281 5.00712 21.4136 4.38502 20.392 4.30085C20.3734 4.29929 20.3548 4.29855 20.3362 4.29855H15.9947ZM16.924 6.0533C16.924 5.83362 16.9517 5.61905 17.0061 5.41183H20.306C20.344 5.41554 20.3717 5.41955 20.3916 5.42319C20.3948 5.44382 20.3976 5.47351 20.3976 5.51425V8.77068C20.251 8.7902 20.1035 8.80007 19.9561 8.80014C19.9547 8.80014 19.9533 8.80014 19.952 8.80014C18.2821 8.79873 16.924 7.56707 16.924 6.0533ZM16.1264 14.6567L17.5836 14.5501C17.7135 14.5407 17.8366 14.4941 17.9355 14.4173L20.5654 12.3707L20.5658 12.3704C20.8201 12.1721 21.0915 12.0704 21.3559 12.0704C21.4735 12.0704 21.5897 12.0906 21.7024 12.1314C22.0274 12.2492 22.2583 12.5185 22.2906 12.8173C22.3312 13.1934 22.0574 13.5746 21.5198 13.8904L18.5893 15.6114H16.1266V14.6567H16.1264ZM13.5264 14.847L14.896 14.7468V15.6116H13.3045C13.0982 15.6116 13.0479 15.4564 13.042 15.3263C13.0386 15.2526 13.0463 14.8827 13.5264 14.847V14.847ZM12.0702 14.4627C11.8849 14.7376 11.7984 15.0592 11.8126 15.3719C11.8163 15.4529 11.8277 15.5309 11.8436 15.6069C11.8436 15.6084 11.8426 15.61 11.8429 15.6115H8.86225V13.4983L12.0726 14.4584C12.0716 14.4599 12.0711 14.4613 12.0702 14.4627V14.4627ZM13.3079 16.7248H18.7713C18.8902 16.7248 19.0066 16.6936 19.1062 16.635L19.3847 16.4715C19.5187 17.0072 19.6713 17.5285 19.8375 18.0209C18.5827 18.356 16.5911 19.4389 16.5911 22.931V25.8687C16.1594 25.9475 15.6488 26.1296 15.2216 26.534C14.7714 26.9604 14.5142 27.538 14.4525 28.2551H13.2114C11.9607 24.9941 11.4851 21.5239 13.3079 16.7248V16.7248ZM14.322 30.7861C14.0946 30.313 13.8754 29.8416 13.669 29.3685H20.0571C20.8851 29.3685 21.3048 29.0274 21.3048 28.3549V26.3694V24.2689H26.161C26.5009 24.2689 26.7762 24.0197 26.7762 23.7122C26.7762 23.4048 26.5009 23.1556 26.161 23.1556H21.3093C21.3171 22.8394 21.3395 22.5809 21.4036 22.4281C21.4347 22.3538 21.4616 22.2897 21.7995 22.2897L24.0084 22.2876C25.3919 22.2864 26.3816 21.9836 27.0341 21.3618C27.0643 21.333 27.0929 21.3028 27.1215 21.2728H31.0349H35.433V22.8026C35.433 22.994 35.2547 23.1556 35.0438 23.1556H28.9189C28.579 23.1556 28.3037 23.4048 28.3037 23.7122C28.3037 24.0197 28.579 24.2689 28.9189 24.2689H34.6822C35.1685 25.0855 35.6059 26.1016 35.5799 27.7071C34.3627 26.1773 32.3923 25.1937 30.1559 25.1937C28.3599 25.1937 26.6747 25.8311 25.4105 26.9886C24.2887 28.0155 23.615 29.3484 23.4764 30.788L14.322 30.7861ZM30.2326 34.8476C28.3093 34.8476 26.6872 33.5938 26.2948 31.9014H34.1704C33.7779 33.5937 32.1558 34.8476 30.2326 34.8476V34.8476ZM34.8694 30.7881H25.596H24.7122C25.0142 28.2711 27.3403 26.307 30.1559 26.307C32.6279 26.307 34.7039 27.7818 35.3914 29.8464C35.3936 29.8529 35.3958 29.8594 35.3983 29.8659C35.4955 30.1621 35.5642 30.4704 35.6013 30.7881H34.8694ZM40.7695 19.2549C40.7695 19.7537 40.3216 20.1595 39.771 20.1595H31.65V17.2849H40.7695V19.2549ZM40.7695 16.1716H31.65V14.9878H40.7695V16.1716ZM40.7695 13.8745H31.65V12.7425C31.65 12.2437 32.098 11.8379 32.6486 11.8379H39.771C40.3216 11.8379 40.7695 12.2437 40.7695 12.7425V13.8745Z"
    fill="#59882B"
/>
</svg>

<svg xmlns="http://www.w3.org/2000/svg" viewBox="0 0 42 38" fill="none" xmlns:v="https://vecta.io/nano"><path d="M39.77 10.725H32.65c-1.23 0-2.23.905-2.23 2.018v7.417h-2.664c.148-.487.203-1.06.167-1.73h0c-.058-2.825-.624-5.205-1.684-7.076-.823-1.452-1.783-2.323-2.607-2.843.967-.9 1.526-2.18 1.526-3.655 0-2.656-2.34-4.816-5.22-4.816s-5.22 2.16-5.22 4.816c0 .307.275.557.615.557h.418c-.038.2-.06.424-.06.64 0 1.872 1.478 3.436 3.432 3.786-.205.688-.307 1.5-.306 2.42l-1.534 1.194-3.734.273-4.307-1.288c-.395-.12-.842-.253-1.23 0-.383.25-.383.687-.383.83v2.897c0 .308.275.557.615.557h.732l-1.123 3.512c-.094.295.094.604.42.69s.668-.085.762-.38l1.222-3.822H12c-2.176 6.002-.934 10.01.974 14.063h-1.106l-4.606-4.66.974-3.044c.095-.295-.094-.604-.42-.69s-.668.085-.762.38l-.932 2.912c-2.88-.043-5.46 1.754-6.116 4.34-.076.3.13.598.462.667l.873.182c-.223 2.097 1.303 4.075 3.63 4.56a5.21 5.21 0 0 0 1.064.11c.873 0 1.73-.22 2.5-.652.9-.505 1.554-1.247 1.913-2.124l.69.143c.205.043.4.065.595-.03a.65.65 0 0 0 .347-.427 5.06 5.06 0 0 0 .099-.554h12.867c.412 2.315 2.588 4.06 5.188 4.06s4.776-1.745 5.188-4.06h.47l.114.001c.176 0 .43-.018.64-.2.104-.096.227-.268.218-.54-.017-.523-.104-1.028-.252-1.508.5-2.692.02-4.33-.68-5.614.442-.262.735-.714.735-1.227v-1.53h3.108c1.23 0 2.23-.905 2.23-2.018v-6.512c0-1.113-1-2.018-2.23-2.018h0zM7.882 33.95a3.76 3.76 0 0 1-2.624.4h0c-1.665-.347-2.776-1.728-2.695-3.222l6.673 1.4c-.276.588-.743 1.086-1.354 1.432h0zm3.078-2.217L1.4 29.74c.74-1.83 2.726-3.04 4.898-2.937l4.688 4.743c-.004.063-.01.125-.016.187zm9.293-9.7c-.18.426-.18.952-.18 1.68v2.1h-2.253V22.93c0-3.258 1.965-3.84 2.847-3.934H26.7c-.024.74-.21 1.265-.56 1.6-.408.39-1.106.578-2.134.58l-2.208.002c-.788 0-1.308.288-1.546.857h0zm-.18 4.893v1.33h-4.387c.05-.412.19-.73.424-.952.347-.328.835-.377 1.095-.377h2.868zm6.6-9.043h-5.595a19.22 19.22 0 0 1-.59-2.06l1.7-1c.93-.546 1.412-1.316 1.325-2.115-.076-.708-.608-1.34-1.355-1.61-.682-.247-1.416-.17-2.065.206.053-.532.153-1.008.297-1.41a4.74 4.74 0 0 0 .778-.139 5.42 5.42 0 0 0 1.436-.515c1.185.64 3.79 2.718 4.067 8.645h0zM15.995 4.3c.3-1.78 1.948-3.146 3.944-3.146 2.2 0 3.99 1.66 3.99 3.703 0 1.66-.88 3-2.3 3.588v-2.93c0-.507-.215-1.13-1.236-1.213-.02-.002-.037-.002-.056-.002h-4.342zm.93 1.755a2.52 2.52 0 0 1 .082-.641h3.3a1.05 1.05 0 0 1 .086.011.6.6 0 0 1 .006.091V8.77c-.147.02-.294.03-.442.03-1.674-.001-3.032-1.233-3.032-2.747zm-.798 8.603l1.457-.107a.65.65 0 0 0 .352-.133l2.63-2.047c.254-.198.526-.3.8-.3.118 0 .234.02.347.06.325.118.556.387.588.686.04.376-.233.757-.77 1.073l-2.93 1.72h-2.463v-.955zm-2.6.2l1.37-.1v.865h-1.59c-.206 0-.257-.155-.263-.285-.003-.074.004-.444.484-.48h0zm-1.456-.384a1.51 1.51 0 0 0-.258.909 1.47 1.47 0 0 0 .031.235l-2.98.005v-2.113l3.2.96-.002.004zm1.238 2.262h5.463a.66.66 0 0 0 .335-.09l.278-.164c.134.536.287 1.057.453 1.55-1.255.335-3.246 1.418-3.246 4.9v2.938c-.432.08-.942.26-1.37.665-.45.426-.707 1.004-.77 1.72h-1.24c-1.25-3.26-1.726-6.73.097-11.53h0zm1.014 14.06c-.227-.473-.447-.945-.653-1.418h6.388c.828 0 1.248-.34 1.248-1.014V24.27h4.856c.34 0 .615-.25.615-.557s-.275-.557-.615-.557H21.31c.008-.316.03-.575.094-.727.03-.074.058-.138.396-.138l2.21-.002c1.383-.001 2.373-.304 3.026-.926.03-.03.06-.06.087-.09h8.31v1.53c0 .19-.178.353-.39.353H28.92c-.34 0-.615.25-.615.557s.275.557.615.557h5.763c.486.817.924 1.833.898 3.438-1.217-1.53-3.188-2.513-5.424-2.513-1.796 0-3.48.637-4.745 1.795-1.122 1.027-1.796 2.36-1.934 3.8l-9.154-.002zm15.91 4.06c-1.923 0-3.545-1.254-3.938-2.946h7.876c-.392 1.692-2.015 2.946-3.938 2.946h0zm4.637-4.06H24.712c.302-2.517 2.628-4.48 5.444-4.48 2.472 0 4.548 1.475 5.235 3.54l.007.02c.097.296.166.605.203.922h-.732zm5.9-11.533c0 .5-.448.905-.998.905h-8.12v-2.875h9.12v1.97zm0-3.083h-9.12v-1.184h9.12v1.184zm0-2.297h-9.12v-1.132c0-.5.448-.905 1-.905h7.122c.55 0 1 .406 1 .905v1.132z" fill="#59882b"/></svg>
